X: 35
T:Staten Island Hornpipe
M:4/4
L:1/8
R:Reel
K:D
AG|"D"FDFG A2A2|"D"dfed dcBA|"G"B2GB "D"2FA|"A"G2E2 E2AG|"D"FDFG A2A2|
"D"dfed dcBA|"D"d2d2 "A"efge|"D"2d2 d2:||:fg|"D"a2fa "A"g2eg|"D"f2df "A"
ecA2|"C"=c2=c2 efge|
"C"=c2=c2 efge|"D"a2fa "A"g2eg|"D"f2df "A"cA2|"D"d2d2 "A"efge|"D"f2d2 d2
:||
